fs/data_usage_24_filled.svg

<svg viewBox="0 0 24 24" fill="none" xmlns="http://www.w3.org/2000/svg" height="1em" width="1em">
  <path d="M18.25 2.99609C19.7688 2.99609 21 4.22731 21 5.74609V18.2461C21 19.7649 19.7688 20.9961 18.25 20.9961H5.75C4.23122 20.9961 3 19.7649 3 18.2461V5.74609C3 4.22731 4.23122 2.99609 5.75 2.99609H18.25ZM7.75 8.9994C7.33579 8.9994 7 9.33374 7 9.74618V16.2526C7 16.6651 7.33579 16.9994 7.75 16.9994C8.16421 16.9994 8.5 16.6651 8.5 16.2526V9.74618C8.5 9.33374 8.16421 8.9994 7.75 8.9994ZM16.25 6.9994C15.8358 6.9994 15.5 7.32597 15.5 7.72881V16.27C15.5 16.6728 15.8358 16.9994 16.25 16.9994C16.6642 16.9994 17 16.6728 17 16.27V7.72881C17 7.32597 16.6642 6.9994 16.25 6.9994ZM11.9751 11.9961C11.5707 12.0001 11.246 12.3285 11.25 12.7296L11.2854 16.277C11.2894 16.6781 11.6205 17.0001 12.0249 16.9962C12.4293 16.9921 12.754 16.6637 12.75 16.2626L12.7146 12.7153C12.7106 12.3142 12.3795 11.9922 11.9751 11.9961Z" fill="#212121"/>
</svg>

<svg viewBox="0 0 24 24" fill="none" xmlns="http://www.w3.org/2000/svg" height="1em" width="1em">
  <path d="M18.25 2.996A2.75 2.75 0 0 1 21 5.746v12.5a2.75 2.75 0 0 1-2.75 2.75H5.75A2.75 2.75 0 0 1 3 18.246v-12.5a2.75 2.75 0 0 1 2.75-2.75h12.5ZM7.75 9a.748.748 0 0 0-.75.747v6.507c0 .412.336.746.75.746s.75-.334.75-.746V9.746A.748.748 0 0 0 7.75 9Zm8.5-2a.74.74 0 0 0-.75.73v8.541c0 .403.336.73.75.73a.74.74 0 0 0 .75-.73V7.729a.74.74 0 0 0-.75-.73Zm-4.275 4.997a.73.73 0 0 0-.725.734l.035 3.547a.73.73 0 0 0 .74.72.73.73 0 0 0 .725-.734l-.035-3.548a.73.73 0 0 0-.74-.719Z" fill="#212121"/>
</svg>
